X:84
T:Gullane Polka (2), The 
F:file ID: jol/084gullp2
Z:bill@capeirish.com
B:JOL.065
Q:120
L:1/8
M:2/4
R:polka
K:D
z|B/c/d/B/ AF|A2 AF/A/|B/c/d/B/ AF|E2 E>B|
d>B AF|Ad f/g/f/e/|dB AF/A/|D2D:|
e|f>d fa|eg f/g/f/e/|fd fa|f2 fd/e/|
f>d fa|eg f/g/f/e/|dB AF/A/|1D2D :|\
[2"last time"D4-|D4|]

